X:0778
M:C|
L:1/8
Q:1/4=120
K:D
f|d>AA<d f2(df)|f>f g/f/e/d/ c<eef   |  d>AF<A      B<dc<e   |  d>AB<G    F<DD>f|
  d>AA<d f2 d>f|f>f g/f/e/d/ ceAc    |(3Bcd (3GAB (3cde (3ABc|(3def (3efg fdd  |]

